icons/editor/folder-upload.svg

<svg width="32" height="32" viewBox="0 0 32 32" fill="none" xmlns="http://www.w3.org/2000/svg">
<path fill-rule="evenodd" clip-rule="evenodd" d="M3.99951 4.00012C2.89494 4.00012 1.9995 4.89556 1.99951 6.00014L1.99965 26C1.99966 27.1046 2.89508 28 3.99965 28H11V26H3.99965L3.99951 6.00012H10.5855L13.9997 9.41436C14.3748 9.78944 14.8835 10.0002 15.414 10.0002H27.9996V26H21V28H27.9996C29.1042 28 29.9996 27.1046 29.9996 26V10.0002C29.9996 8.89558 29.1042 8.00015 27.9996 8.00015H15.414L11.9998 4.58591C11.6247 4.21084 11.116 4.00012 10.5855 4.00012H3.99951ZM17.0002 17.4142L20.2934 20.7074L21.7076 19.2931L16.7074 14.2929L16.0003 13.5858L15.2931 14.2929L10.2929 19.2931L11.7071 20.7074L15.0002 17.4142V30.0002H17.0002V17.4142Z" fill="black"/>
</svg>

<svg width="32" height="32" viewBox="0 0 32 32" xmlns="http://www.w3.org/2000/svg">
    <path fill-rule="evenodd" d="M4 4a2 2 0 00-2 2v20a2 2 0 002 2h7v-2H4V6h6.585L14 9.414a2 2 0 001.414.586H28v16h-7v2h7a2 2 0 002-2V10a2 2 0 00-2-2H15.414L12 4.586A2 2 0 0010.585 4H4zm13 13.414l3.293 3.293 1.415-1.414-5-5-.708-.707-.707.707-5 5 1.414 1.414L15 17.414V30h2V17.414z"/>
</svg>
